X:1
T: East Kilbride
C:A.M. Volti
R:Strathspey
Q: 128
K:A
M:4/4
L:1/16
|:e3d|cA3 E3A F3A E3C|((3E2F2G2) ((3A2B2c2) B4 e3d|cA3 E3A F3A E3A|((3F2G2A2) ((3G2A2B2) A4 e3d|
cA3 E3A F3A E3C|((3E2F2G2) ((3A2B2c2) B4 e3d|cA3 E3A F3A E3A|((3F2G2A2) ((3G2A2B2) A4 c3d|
ec3 d3e fd3 B3f|((3g2e2^d2) ((3e2f2g2) a4 f3g|a3f g3e f3d e3c|((3d2c2B2) ((3c2B2A2) B4 c3d|
ec3 d3e fd3 B3f|((3g2e2^d2) ((3e2f2g2) a4 f3g|a3g f3e f3e d3c|((3B2f2e2) ((3d2c2B2) A4:|
